!!!!SEGMENT: pl-wnifc--6670-n--001-019_gall-jan-karol--piesni-polskie-na-chor-meski-z-i-7-hej-bracia-czy-spicie.krn
!!!cenid: 19xx:187
!!!COM: Gall, Jan Karol
!!!COM-rismID: pe50042628
!!!CDT: 1856-1912
!!!CNT: Polish
!!!GTL: Pieśni polskie na chór męski (z. I)
!!!OTL: 7. Hej bracia czy spicie
!!!OMV: 019
!!!PDT:
!!!AGN:
!!!YEC: Copyright 2022 Narodowy Instytut Fryderyka Chopina (https://polishscores.org)
!!!YEM: License CC-BY-4.0 (https://creativecommons.org/licenses/by/4.0)
!!!SMS-siglum: PL-Wnifc
!!!SMS-shelfmark: 6670/n
!!!SMS-variant:
!!!SMS-altvar:
!!!SMS-shelfwork: 001-019 G
!!!NIFC-rismSourceID: 1001152877
!!!NIFC-rismChildID: 1001152907
!!!NIFC-islandoraID: nifc:213182
!!!URL-pdf-islandora: https://repozytorium.nifc.pl/islandora/object/nifc:213182/datastream/PDF/view
!!!URL-scan: https://polish.musicsources.pl/pl/lokalizacje/galeria/druki-muzyczne/16895/10 @EN{Scan on Polish Music Sources Website} @PL{Skany w portalu Dziedzictwo Muzyki Polskiej w otwartym dostępie}
!!!IIIF:
!!!ONB-nifc:
!!!AIN: 1 bass 1 tenor
!!!key: C
**kern	**dynam	**kern	**text	**text	**dynam
*part2	*part2	*part1	*part1	*part1	*part1
*staff2	*	*staff1	*staff1	*staff1	*
*ICvox	*	*ICvox	*	*	*
*Ibass	*	*Itenor	*	*	*
*I"Basy.	*	*I"Tenory.	*	*	*
*I'	*	*I'	*	*	*
*clefF4	*	*clefGv	*	*	*
*	*	*ITrd8c12	*	*	*
*k[]	*	*k[]	*	*	*
*C:	*	*C:	*	*	*
*M2/4	*	*M2/4	*	*	*
*>[A,A]	*>[A,A]	*>[A,A]	*>[A,A]	*>[A,A]	*>[A,A]
=1	=1	=1	=1	=1	=1
*>A	*>A	*>A	*>A	*>A	*>A
*^	*	*^	*	*	*
!!LO:TX:a:B:t=Vivo.
!	!	!LO:DY:b:rj	!	!	!	!	!LO:DY:a:rj
8G/	8C\	f	8g/	8e\	Hej!	Pa-	f
4c/	4c\	.	4g/	4e\	bra-	-ste-	.
8c/	8c\	.	8g/	8e\	-cia	-rze	.
=2	=2	=2	=2	=2	=2	=2	=2
4c/	4c\	.	8f#X/L	8d#X\L	czy	oj!	.
.	.	.	8g/J	8e\J	.	.	.
8c/	8c\	.	8a/	8fn\	spi-	mi-	.
8c/	8c\	.	8g/	8e\	-cie	-li	.
=3	=3	=3	=3	=3	=3	=3	=3
8c/	8c\	.	8f#X/	8e-X\	czy	dzi-	.
8c/	8G\	.	8g/	8d\	wszy-	-siaj	.
8c/	8G\	.	8d/	8d\	-scy	o	.
16B/LL	8G\	.	8g/	16d\LL	ba-	tej	.
16G/JJ	.	.	.	16B\JJ	.	.	.
=4	=4	=4	=4	=4	=4	=4	=4
8G/	8C\	.	8e/	8c\	-czy-	chwi-	.
4E/	4C\	.	4c/	4G\	-cie?	-li	.
8r	8ryy	.	8r	8ryy	.	.	.
=5	=5	=5	=5	=5	=5	=5	=5
!	!	!LO:DY:b:rj	!	!	!	!	!LO:DY:a:rj
8F/	8GG\	p	8B/	8G\	Dzi-	Chry-	p
8F/	8GG\	.	8B/	8G\	-wy	-stus	.
4F/	4GG\	.	4G/	4G\	nie-	się	.
!!LO:LB:g=original
=6	=6	=6	=6	=6	=6	=6	=6
8E/	8C\	.	8c/	8G\	-sły-	na-	.
4G/	4C\	.	4e/	4c\	-cha-	-ro-	.
8E/	8C\	.	8c/	8G\	-ne	-dził	.
=7	=7	=7	=7	=7	=7	=7	=7
8F/	8GG\	.	8B/	8G\	dzi-	Chry-	.
8F/	8GG\	.	8B/	8G\	-wy	-stus	.
8F/	8GG\	.	8G/	8G\	nie-	się	.
8F/	8GG\	.	8B/	8G\	-sły-	na-	.
=8	=8	=8	=8	=8	=8	=8	=8
8E/	8C\	.	8c/	8G\	-cha-	-ro-	.
8E/	8C\	.	8c/	8G\	-ne!	-dził	.
4r	4ryy	.	4r	4ryy	.	.	.
=9	=9	=9	=9	=9	=9	=9	=9
!	!	!LO:DY:b:rj	!	!	!	!	!LO:DY:a:rj
8G/	8C\	f	8g/	8e\	Wi-	oj!	f
4c/	4c\	.	4g/	4e\	-taj-	nie-	.
8c/	8c\	.	8g/	8e\	-że	-bo	.
=10	=10	=10	=10	=10	=10	=10	=10
8c/	8c\	.	8f#X/	8d#X\	zba-	o-	.
8c/	8c\	.	8g/	8e\	-wi-	-two-	.
8c/	8c\	.	8a/	8fn\	-cie-	-rzo-	.
8c/	8c\	.	8g/	8e\	-lu,	-ne	.
!!LO:LB:g=original
=11	=11	=11	=11	=11	=11	=11	=11
8c/	8c\	.	8f#X/	8e-X\	dusz	woj-	.
8c/	8G\	.	8g/	8d\	od-	-sko	.
8c/	8G\	.	8d/	8d\	-ku-	nie-	.
16B/LL	8G\	.	8g/	16d\LL	-pi-	-zli-	.
16G/JJ	.	.	.	16B\JJ	.	.	.
=12	=12	=12	=12	=12	=12	=12	=12
8G/	8C\	.	8e/	8c\	cie-	-czo-	.
4E/	4C\	.	4c/	4G\	-lu!	-ne	.
8r	8ryy	.	8r	8ryy	.	.	.
=13	=13	=13	=13	=13	=13	=13	=13
!	!	!LO:DY:b:rj	!	!	!	!	!LO:DY:a:rj
8F/	8GG\	p	8B/	8G\	Bar-	A-	p
8F/	8GG\	.	8B/	8G\	-dzoś-	-niel-	.
4F/	4GG\	.	4G/	4G\	-my	-skie	.
=14	=14	=14	=14	=14	=14	=14	=14
!	!	!	!	!	!	!	!LO:HP:a
8E/	8C\	<	8c/	8G\	prag-	wi-	<
4G/	4C\	[	4e/	4c\	-nę-	-dzi-	[
8E/	8C\	.	8c/	8G\	-li	-my	.
=15	=15	=15	=15	=15	=15	=15	=15
!	!	!LO:DY:b:rj	!	!	!	!	!LO:DY:a
8F/	8GG\	p	8B/	8G\	na-	a-	p
8F/	8GG\	.	8B/	8G\	-ro-	-niel-	.
!	!	!	!	!	!	!	!LO:HP:a
.	.	<	.	.	.	.	<
8F/	8GG\	.	8G/	8G\	-dze-	-skie	.
8F/	8GG\	[[	8B/	8G\	-nia	wi-	[[
=16	=16	=16	=16	=16	=16	=16	=16
!	!	!	!	!	!	!	!LO:DY:a:rj
8E/	8C\	f	8c/	8G\	twe-	-dzi-	f
8E/	8C\	.	8c/	8G\	-go.	-my.	.
4r	4ryy	.	4r	4ryy	.	.	.
*v	*v	*	*	*	*	*	*
*	*	*v	*v	*	*	*
=:|!	=:|!	=:|!	=:|!	=:|!	=:|!
*-	*-	*-	*-	*-	*-
!!!system-decoration: [(s1,s2)]
!!!RDF**kern: > = above
!!!RDF**kern: < = below
!!!RDF**kern: N = linked
!!!ENC: Filip Voros
!!!EED: Katarzyna Serwa
!!!END: 2024-05-03
!!!EEV: 2025-03-09
